!!!!SEGMENT: pl-gd--ee-1638--006-014_marenzio-luca--il-quinto-libro-de-madrigalia-a-cinque-voci-dolor-tant-e-la-gioia.krn
!!!cenid: 15xx:896
!!!COM: Marenzio, Luca
!!!COM-rismID: pe30003955
!!!CDT: ~1553-1599/08/22
!!!CNT: Italian
!!!GTL: Il Quinto libro de madrigalia a cinque voci
!!!OTL: Dolor tant’è la gioia
!!!OMV: 014
!!!PDT: 1585
!!!AGN:
!!!SMS-siglum: PL-GD
!!!SMS-shelfmark: Ee 1638
!!!SMS-variant:
!!!SMS-altvar:
!!!SMS-shelfwork: 006-014 G
!!!NIFC-rismSourceID: 1001202747
!!!NIFC-rismChildID: 990039296
!!!NIFC-islandoraID: pl-gd:57883
!!!URL-pdf-islandora: https://repozytorium.nifc.pl/islandora/object/pl-gd%3A57883/datastream/PDF/view
!!!URL-scan: https://polish.musicsources.pl/pl/lokalizacje/galeria/klocki-introligatorskie/655 @EN{Scan on Polish Music Sources Website} @PL{Skany w portalu Dziedzictwo Muzyki Polskiej w otwartym dostępie}
!!!ONB-nifc:
!!!AIN: 1 alto 1 bass 1 soprn 1 tenor 1 vox
!!!key: F
**kern	**text	**kern	**text	**kern	**text	**kern	**text	**kern	**text
*part5	*part5	*part4	*part4	*part3	*part3	*part2	*part2	*part1	*part1
*staff5	*staff5	*staff4	*staff4	*staff3	*staff3	*staff2	*staff2	*staff1	*staff1
*I"QVINTO	*	*I"BASSO	*	*I"TENORE	*	*I"ALTO	*	*I"CANTO	*
*I'V	*	*I'B	*	*I'T	*	*I'A	*	*I'S	*
*ICvox	*	*ICvox	*	*ICvox	*	*ICvox	*	*ICvox	*
*Ivox	*	*Ibass	*	*Itenor	*	*Ialto	*	*Isoprn	*
*clefC4	*	*clefF4	*	*clefC4	*	*clefC3	*	*clefC1	*
*k[]	*	*k[]	*	*k[]	*	*k[]	*	*k[]	*
*F:	*	*F:	*	*F:	*	*F:	*	*F:	*
*M2/1	*	*M2/1	*	*M2/1	*	*M2/1	*	*M2/1	*
*met(C)	*	*met(C)	*	*met(C)	*	*met(C)	*	*met(C)	*
=1-	=1-	=1-	=1-	=1-	=1-	=1-	=1-	=1-	=1-
0F	DO-	00r	.	00r	.	1r	.	1r	.
.	.	.	.	.	.	0f	DO-	0a	DO-
=2-	=2-	=2-	=2-	=2-	=2-	=2-	=2-	=2-	=2-
0c	-lor	.	.	.	.	.	.	.	.
.	.	.	.	.	.	1e	-lor	1g	-lor
=3-	=3-	=3-	=3-	=3-	=3-	=3-	=3-	=3-	=3-
4F/	tan-	00r	.	00r	.	4a\	tan-	4cc\	tan-
8F/	-t'e	.	.	.	.	8a\	-t'è	8cc\	-t'è
8G/	la	.	.	.	.	8g\	la	8b-X\	la
4A/	gio-	.	.	.	.	4.f\	gio-	4.a\	gio-
4F/	-ia	.	.	.	.	.	.	.	.
.	.	.	.	.	.	8e\	-ia	8g/	-ia
4B-X\	che	.	.	.	.	4d\	che	4f/	che
4d\	mi	.	.	.	.	4f\	mi	4f/	mi
2c\	dai	.	.	.	.	2e\	dai	2g/	dai
=4-	=4-	=4-	=4-	=4-	=4-	=4-	=4-	=4-	=4-
2c\	ch'io	.	.	.	.	2e\	.	1g	.
4G/	vò-	.	.	.	.	2r	.	.	.
8A/	-can-	.	.	.	.	.	.	.	.
!LO:SIC:v:t=custos c	!	!	!	!	!	!	!	!	!
8Bny\	-tan-	.	.	.	.	.	.	.	.
!LO:LB:g=original	!	!	!	!	!	!	!	!	!
8c\	.	.	.	.	.	4e\	ch'io	4g/	Ch'io
8B\	.	.	.	.	.	.	.	.	.
8A\	.	.	.	.	.	8f\	vò-	8a\	vò-
!	!	!	!	!	!	!LO:SIC:v:t=custos a	!	!LO:SIC:v:t=custos cc	!
8G/	.	.	.	.	.	8g\	-can-	8bny\	-can.-
!	!	!	!	!	!	!LO:LB:g=original	!	!LO:LB:g=original	!
4F/	.	.	.	.	.	8a\	-tan-	8cc\	-tan-
.	.	.	.	.	.	8g\	.	8b\	.
4F/	-do	.	.	.	.	8f\	.	8a\	.
.	.	.	.	.	.	8e\	.	8g\	.
=5-	=5-	=5-	=5-	=5-	=5-	=5-	=5-	=5-	=5-
4B-X\	Ch'io	00r	.	00r	.	8d\	.	8f/	.
.	.	.	.	.	.	8e\	.	8g\	.
8A/	vo	.	.	.	.	8f\	.	8a\	.
8G/	can-	.	.	.	.	8g\	.	8b\	.
8F/	-tan-	.	.	.	.	4.a\	.	4.cc\	.
8G/	.	.	.	.	.	.	.	.	.
8A\	.	.	.	.	.	.	.	.	.
8B-\	.	.	.	.	.	16g\	.	16b\	.
.	.	.	.	.	.	16f\	.	16a\	.
4c\	.	.	.	.	.	4e\	.	4g/	.
4d\	-d'ogn'-	.	.	.	.	2f\	-d'ogn'-	4f/	-d'ogn'
2c\	-ho-	.	.	.	.	.	.	2g/	ho-
.	.	.	.	.	.	4e\	-ho-	.	.
=6-	=6-	=6-	=6-	=6-	=6-	=6-	=6-	=6-	=6-
1F	-ra	.	.	.	.	1f	-ra	1a	-ra
1F	Do-	.	.	.	.	1.f	Do-	0a	Do-
=7-	=7-	=7-	=7-	=7-	=7-	=7-	=7-	=7-	=7-
0c	-lor	0C	DO-	1r	.	.	.	.	.
.	.	.	.	.	.	4e\	.	.	.
.	.	.	.	.	.	4d\	.	.	.
.	.	.	.	0c	Do-	0e	.	0.g	-lor
=8-	=8-	=8-	=8-	=8-	=8-	=8-	=8-	=8-	=8-
1r	.	0G	-lor	.	.	.	.	.	.
2r	.	.	.	1B	-lor	1d	-lor	.	.
4r	.	.	.	.	.	.	.	.	.
!LO:SIC:v:t=custos c	!	!	!	!	!	!	!	!	!
4G/	del	.	.	.	.	.	.	.	.
!LO:LB:g=original	!	!	!	!	!	!	!	!	!
=9-	=9-	=9-	=9-	=9-	=9-	=9-	=9-	=9-	=9-
4.c\	pet-	4r	.	4r	.	4r	.	4r	.
.	.	4C/	del	4c\	del	4e\	del	4g/	del
8Bny\	-to-	.	.	.	.	.	.	.	.
2A/	-mio	4.F\	pet-	4.c\	pet-	4c/	pet-	4.a\	pet-
!	!	!	!	!	!	!LO:SIC:v:t=custos e	!	!	!
.	.	.	.	.	.	4f\	-to	.	.
!	!	!	!	!	!	!	!	!LO:SIC:v:t=custos cc	!
.	.	8G\	-to	8B\	-to	.	.	8b\	-to
!	!	!	!	!	!	!LO:LB:g=original	!	!LO:LB:g=original	!
2r	.	4A\	mio	2A/	mio	4e\	mio	2cc\	mio
.	.	4.F\	non	.	.	4.a\	non	.	.
2A/	non	.	.	4r	.	.	.	4r	.
.	.	8F\	uſ-	.	.	8a\	uſ-	.	.
.	.	4F\	-cir	4.d\	non	4a\	-cir	4.f/	non
=10-	=10-	=10-	=10-	=10-	=10-	=10-	=10-	=10-	=10-
4B\	uſ-	1G	mai	.	.	1g	mai	.	.
.	.	.	.	8d\	uſ-	.	.	8f/	uſ-
4c\	-cir	.	.	4c\	-cir	.	.	4e/	-cir
2d\	mai	.	.	2B\	mai	.	.	2d/	mai
!	!	!	!	!LO:SIC:v:t=custos A	!	!	!	!	!
2e\	E	2C/	.	2c\	E	2g\	.	1c	.
!	!	!LO:SIC:v:t=custos E	!	!LO:LB:g=original	!	!	!	!	!
2c\	s'egl'-	2F\	E	2A/	s'egl'-	4r	.	.	.
.	.	.	.	.	.	4c/	E	.	.
!	!	!LO:LB:g=original	!	!	!	!	!	!	!
=11-	=11-	=11-	=11-	=11-	=11-	=11-	=11-	=11-	=11-
2c\	-au-	2E\	s'egt'-	2G/	-au-	2g\	s'egt'-	00r	.
2c\	-ien	2F\	-a-	2A/	-ien	2f\	-a-	.	.
2d\	ch'i	2BB-X/	-uien	2B-X\	ch'i	2f\	-uien	.	.
2c\	mo-	2C/	ch'i	2A/	mo-	2e\	ch'i	.	.
=12-	=12-	=12-	=12-	=12-	=12-	=12-	=12-	=12-	=12-
1A	-ra	1D	mo-	1F#X	-ra	1d	mo-	.	.
2A/	Per	2D\	-ra	2F#/	Per	2d\	-ra	.	.
2B\	via	2G\	Per	2G/	via	2d\	Per	.	.
=13-	=13-	=13-	=13-	=13-	=13-	=13-	=13-	=13-	=13-
2c\	de	2F\	via	2A/	de	2f\	via	0r	.
4c\	le	4E\	de	4G/	le	4g\	de	.	.
2c\	tu-	2F\	le	2A/	tu-	2f\	le	.	.
!LO:SIC:v:t=custos A	!	!	!	!	!	!	!	!	!
4c\	-e	4C/	tue	4G/	-e	4e\	tue	.	.
!LO:LB:g=original	!	!	!	!	!	!	!	!	!
1A\	ar-	2D/	ar-	1Fny/	ar-	1d\	ar-	.	.
=14-	=14-	=14-	=14-	=14-	=14-	=14-	=14-	=14-	=14-
.	.	1AA	-mi	.	.	.	.	1r	.
!	!	!	!	!	!	!LO:SIC:v:t=custos e	!	!	!
2A/	-mi	.	.	2E/	-mi	2c#X/	-mi	.	.
!	!	!	!	!	!	!LO:LB:g=original	!	!	!
1ryy	.	1ryy	.	1r	.	1ryy	.	1r	.
=15-	=15-	=15-	=15-	=15-	=15-	=15-	=15-	=15-	=15-
*M3/1	*	*M3/1	*	*M3/1	*	*M3/1	*	*M3/1	*
*met(C.3/1)	*	*met(C.3/1)	*	*met(C.3/1)	*	*met(C.3/1)	*	*met(C.3/1)	*
!	!	!LO:N:vis=00	!	!	!	!	!	!	!
2.c#X\	Sen-	1%3r	.	2.A/	Sen-	2.e\	Sen-	2.a\	Sen-
4c#\	-ti-	.	.	4A/	-ti-	4e\	-ti-	4a\	-ti-
!	!	!	!	!LO:SIC:v:t=custos G	!	!	!	!	!
2c#\	-rò	.	.	2A/	-rò	2e\	-rò	2a\	-rò
!	!	!	!	!LO:LB:g=original	!	!	!	!	!
2.d\	ſen-	.	.	2.G/	ſen-	2.g\	ſen-	2.b\	ſen-
4d\	-ti-	.	.	4G/	-ti-	4g\	-ti-	4b\	-ti-
2d\	-rò	.	.	2G/	-rò	2g\	-rò	2b\	-rò
=16-	=16-	=16-	=16-	=16-	=16-	=16-	=16-	=16-	=16-
!	!	!	!	!	!	!	!	!	!
1e	di	1%3ryy	.	1c	di	1g	di	1cc	di
2d\	dol-	.	.	2G/	dol-	2g\	dol-	2b-X\	dol-
1c#X	-cez-	.	.	1A	-cez-	1e	-cez-	1a	-cez-
!	!	!	!	!	!	!	!	!LO:SIC:v:t=custos a	!
2c#\	-za	.	.	2A/	-ll'za	2e\	-ll'za	2a\	-za
!	!	!	!	!	!	!	!	!LO:LB:g=original	!
=17-	=17-	=17-	=17-	=17-	=17-	=17-	=17-	=17-	=17-
!	!	!LO:N:vis=00	!	!	!	!	!	!	!
2r	.	1%3r	.	2.d\	hor	2.f#X\	hor	2r	.
2r	.	.	.	.	.	.	.	2r	.
.	.	.	.	4Bny\	be-	4g\	be-	.	.
2A/	all'-	.	.	2c#X\	-ar	2e\	-ar	2a\	all'-
2.d\	-hor	.	.	1d	mi	1d	mi	2.f#X/	-hor
4B\	be-	.	.	.	.	.	.	4g/	be-
!LO:SIC:v:t=custos d	!	!	!	!	!	!	!	!	!
2c#X\	-ar	.	.	2A\	all'-	2a\	all'-	2e/	-ar
!LO:LB:g=original	!	!	!	!	!	!	!	!	!
=18-	=18-	=18-	=18-	=18-	=18-	=18-	=18-	=18-	=18-
1d	mi	1%3ryy	.	2.d\	-hor	2.f#X\	-hor	1d	mi
.	.	.	.	4B\	be-	4g\	be-	.	.
!	!	!	!	!	!	!LO:SIC:v:t=custos d	!	!	!
2A/	all'-	.	.	2c#X\	-ar-	2e\	-ar-	2a\	all'-
!	!	!	!	!	!	!LO:LB:g=original	!	!	!
2.d\	-her	.	.	1d	-mi	1d	-mi	2.f#X/	-her
4B\	be-	.	.	.	.	.	.	4g/	be-
2c#X\	-ar	.	.	2r	.	2r	.	2e/	-ar
=19-	=19-	=19-	=19-	=19-	=19-	=19-	=19-	=19-	=19-
*M2/1	*	*M2/1	*	*M2/1	*	*M2/1	*	*M2/1	*
*met(C)	*	*met(C)	*	*met(C)	*	*met(C)	*	*met(C)	*
1d	mi	2r	.	2r	.	1r	.	1d	mi
.	.	1D	E	1F	E	.	.	.	.
1A	E	.	.	.	.	2r	.	2r	.
!	!	!	!	!LO:SIC:v:t=custos F	!	!	!	!	!
.	.	2D/	poſ-	2F/	poſ-	1fny\	E	1a\	E
!	!	!	!	!LO:LB:g=original	!	!	!	!	!
=20-	=20-	=20-	=20-	=20-	=20-	=20-	=20-	=20-	=20-
!	!	!LO:SIC:v:t=custos D	!	!	!	!	!	!	!
2A/	poſ-	2D/	-ſen-	2F/	-ſen-	.	.	.	.
!	!	!LO:LB:g=original	!	!	!	!	!	!	!
2A/	-ſen-	4D/	-do	4F/	-do	2f\	poſ-	2a\	poſ-
.	.	4E\	par-	4G/	par-	.	.	.	.
4A/	-do	2F\	-lar	2A/	-lar	2f\	-ſen-	2a\	-ſen-
4B\	par-	.	.	.	.	.	.	.	.
*	*	*	*	*	*ij	*	*	*	*
2cny\	-lar	1F\	E	1A\	E	4f\	-do	4a\	-do
.	.	.	.	.	.	4g\	par-	4bny\	par-
=21-	=21-	=21-	=21-	=21-	=21-	=21-	=21-	=21-	=21-
1c	E	.	.	.	.	2a\	-lar	2cc\	-lar
!	!	!	!	!	!	!	!	!LO:SIC:v:t=custos cc	!
.	.	2F\	poſ-	2A/	pos-	1a	E	1cc	E
2c\	poſ-	2F\	-ſen-	2A/	-sen-	.	.	.	.
!	!	!	!	!	!	!	!	!LO:LB:g=original	!
2c\	-ſen-	4F\	-do	4A/	-do	2a\	poſ-	2cc\	poſ-
.	.	4G\	par-	4B\	par-	.	.	.	.
=22-	=22-	=22-	=22-	=22-	=22-	=22-	=22-	=22-	=22-
4c\	-do	1A	-lar	1cny	-lar	2a\	-ſen-	2cc\	-ſen-
!LO:SIC:v:t=custos e	!	!	!	!	!	!	!	!	!
4d\	par-	.	.	.	.	.	.	.	.
!LO:LB:g=original	!	!	!	!	!	!	!	!	!
2e\	-lar	.	.	.	.	4a\	-do	4cc\	-do
.	.	.	.	.	.	4g\	par-	4b-X\	par-
1r	.	2D/	in	4r	.	1f	-lar	2a\	-lar
*	*	*	*	*	*Xij	*	*	*	*
.	.	.	.	4F/	in	.	.	.	.
.	.	1F\	quel-	4.A/	quel-	.	.	4r	.
.	.	.	.	.	.	.	.	4fny/	in
.	.	.	.	8B\	-lo	.	.	.	.
=23-	=23-	=23-	=23-	=23-	=23-	=23-	=23-	=23-	=23-
4r	.	.	.	2c\	ſta-	4r	.	4.a\	quel-
4c\	in	.	.	.	.	4f\	in	.	.
.	.	.	.	.	.	.	.	8bny\	-lo
4.c\	quel-	2A\	lo	2A/	-to	4.e\	quel-	2.cc\	ſta-
8d\	-lo	.	.	.	.	8f\	-lo	.	.
4e\	ſta-	1G	ſta-	1r	.	1g	ſta-	.	.
8d\	.	.	.	.	.	.	.	8b\	.
8c\	.	.	.	.	.	.	.	8a\	.
2d\	.	.	.	.	.	.	.	2b\	.
=24-	=24-	=24-	=24-	=24-	=24-	=24-	=24-	=24-	=24-
!	!	!	!	!	!	!LO:SIC:v:t=custos e	!	!	!
2c\	-to	2C/	-to	4r	.	2e\	-to	1cc	-to
.	.	.	.	4G/	Di-	.	.	.	.
!	!	!	!	!	!	!LO:LB:g=original	!	!	!
4r	.	4r	.	2c\	-re	4r	.	.	.
4G/	Di-	4C/	Di-	.	.	4e\	Di-	.	.
2A/	-rè	2F\	-rè	4r	.	2f\	-rè	4r	.
!	!	!	!	!LO:SIC:v:t=custos c	!	!	!	!	!
*	*	*	*	*	*ij	*	*	*	*
.	.	.	.	4F/	Di-	.	.	4a\	Di-
!	!	!	!	!LO:LB:g=original	!	!	!	!	!
4r	.	4r	.	2c\	-re	4r	.	2g/	-rò
*	*ij	*	*	*	*	*	*ij	*	*
4c\	Di-	4C/	Di-	.	.	4e\	Di-	.	.
=25-	=25-	=25-	=25-	=25-	=25-	=25-	=25-	=25-	=25-
2A/	-re	2F\	-rè	4r	.	1f	-rè	2r	.
.	.	.	.	4A/	Di-	.	.	.	.
!	!	!LO:SIC:v:t=custos BB-	!	!	!	!	!	!	!
4r	.	2BB-X/	che'l	2d\	-re	.	.	2f/	che'l
*	*Xij	*	*	*	*Xij	*	*Xij	*	*
4F/	Di-	.	.	.	.	.	.	.	.
!	!	!LO:LB:g=original	!	!	!	!	!	!	!
2D/	-rè	2BB-/	mio	2r	.	2r	.	2f/	mio
!	!	!	!	!	!	!	!	!LO:SIC:v:t=custos d	!
2E/	che'l	2C/	do-	2A/	che'l	2cny/	che'l	2e/	do-
!	!	!	!	!	!	!	!	!LO:LB:g=original	!
=26-	=26-	=26-	=26-	=26-	=26-	=26-	=26-	=26-	=26-
2F#X/	mio	0D	-lor	2A/	mio	2c/	mio	1d	-lor
!LO:SIC:v:t=custos A	!	!	!	!	!	!	!	!	!
2G/	do-	.	.	2G/	do-	2B-X/	do-	.	.
!LO:LB:g=original	!	!	!	!	!	!	!	!	!
1A	-lor	.	.	2F#X/	-lor	2A/	-lor	2r	.
.	.	.	.	2A/	mi	4r	.	2a\	mi
.	.	.	.	.	.	4f\	mi	.	.
=27-	=27-	=27-	=27-	=27-	=27-	=27-	=27-	=27-	=27-
2r	.	2r	.	4B-X\	fa	4d\	fa	4f/	fa
.	.	.	.	4Fny/	be-	4f\	be-	4a\	be-
4r	.	4r	.	2c\	-a-	2e\	-a-	2g/	-a-
4c\	Di-	4C/	Di-	.	.	.	.	.	.
2c\	-rè	2F\	-rè	4A/	-to	2f\	-to	4a\	-to
.	.	.	.	4F/	Di-	.	.	4a\	Di-
4r	.	4r	.	1c\	-ro	4r	.	2g/	-rò
4c\	Di-	4C/	Di-	.	.	4e\	Di-	.	.
=28-	=28-	=28-	=28-	=28-	=28-	=28-	=28-	=28-	=28-
1A	-rè	2F\	-rè	.	.	1f	-rè	2r	.
.	.	2D/	che'l	4r	.	.	.	2dd\	che'l
.	.	.	.	4F/	Di-	.	.	.	.
2r	.	2F\	mio	2A\	-ro	2r	.	2cc\	mio
2e\	che'l	2G\	do-	2Bny\	che'l	2g\	che'l	2b\	do-
=29-	=29-	=29-	=29-	=29-	=29-	=29-	=29-	=29-	=29-
!	!	!	!	!LO:SIC:v:t=custos d	!	!LO:SIC:v:t=custos f	!	!	!
2e\	mio	1.A	-lor	2c#X\	mio	2g\	mio	0a	-lor
!	!	!	!	!LO:LB:g=original	!	!LO:LB:g=original	!	!	!
2d\	do-	.	.	2d\	do-	2f\	do-	.	.
2.c#X\	-lor	.	.	2e\	-lor	2e\	-lor	.	.
.	.	2AA/	mi	4r	.	4e\	mi	.	.
4c#\	mi	.	.	4A/	mi	2f\	fa	.	.
=30-	=30-	=30-	=30-	=30-	=30-	=30-	=30-	=30-	=30-
4d\	fa	4BB-X/	fa	4F/	fa	.	.	2r	.
4cny\	be-	4FF/	be-	4A/	be-	4f\	be-	.	.
2c\	-a-	2C/	-a-	2G/	-a-	2e\	-a-	4r	.
.	.	.	.	.	.	.	.	4e/	mi
2c\	-to	2FF/	-to	2F/	-to	2a\	-to	4f/	fa
.	.	.	.	.	.	.	.	4c/	be-
2c\	mi	2r	.	4r	.	4r	.	2g/	-a-
.	.	.	.	4E/	mi	4g\	mi	.	.
=31-	=31-	=31-	=31-	=31-	=31-	=31-	=31-	=31-	=31-
4A/	fa	1r	.	4F/	fa	4f\	fa	2c/	-to
!LO:SIC:v:t=custos B	!	!	!	!	!	!	!	!	!
4c\	be-	.	.	4C/	be-	4e\	be-	.	.
!LO:LB:g=original	!	!	!	!	!	!	!	!	!
2B\	-a-	.	.	2G/	-a-	2d\	-a-	2r	.
!	!	!	!	!	!	!	!	!LO:SIC:v:t=custos b	!
2c\	-to	2r	.	2C/	-to	4e\	-to	1cc	mi
.	.	.	.	.	.	2e\	mi	.	.
!	!	!LO:SIC:v:t=custos BB	!	!	!	!	!	!	!
4r	.	2AA/	mi	2cny\	mi	.	.	.	.
4A/	mi	.	.	.	.	2f\	fa	.	.
!	!	!LO:LB:g=original	!	!	!	!	!	!LO:LB:g=original	!
=32-	=32-	=32-	=32-	=32-	=32-	=32-	=32-	=32-	=32-
2Fny/	fa	2BB-X/	fa	2d\	fa	.	.	2b-X\	fa
.	.	.	.	.	.	4d\	be-	.	.
2A/	be-	2FF/	be-	2c\	be-	2.f\	-a-	2a\	be-
1G	-a-	1C	-a-	1c	-a-	.	.	1cc	-a-
.	.	.	.	.	.	8e\	.	.	.
.	.	.	.	.	.	8d\	.	.	.
.	.	.	.	.	.	2e\	.	.	.
=33-	=33-	=33-	=33-	=33-	=33-	=33-	=33-	=33-	=33-
00F	-to.	00FF	-to.	00c	-to.	00f	-to.	00a	-to.
==	==	==	==	==	==	==	==	==	==
*-	*-	*-	*-	*-	*-	*-	*-	*-	*-
!!!system-decoration: [(s1,s2,s3,s4,s5)]
!!!ENC: Andrzej Gręziak
!!!END: 2022-06-09
!!!ENC: Natalia Wrzos
!!!END: 2022-07-20
!!!YEC: Copyright 2022 Narodowy Instytut Fryderyka Chopina (https://polishscores.org)
!!!YEM: License CC-BY-4.0 (https://creativecommons.org/licenses/by/4.0)
